src/assets/facebook_grey.svg

<svg width="19" height="18" viewBox="0 0 19 18" fill="none" xmlns="http://www.w3.org/2000/svg">
<path id="Vector" fill-rule="evenodd" clip-rule="evenodd" d="M18.2227 9.10606C18.2227 4.36626 14.2317 0.523071 9.30959 0.523071C4.38749 0.523071 0.396484 4.36626 0.396484 9.10606C0.396484 13.3899 3.65534 16.9407 7.91692 17.5852V11.5878H5.65323V9.10606H7.91692V7.21512C7.91692 5.06439 9.24791 3.87542 11.2836 3.87542C12.2589 3.87542 13.2791 4.04325 13.2791 4.04325V6.15566H12.1546C11.048 6.15566 10.7019 6.81701 10.7019 7.49675V9.10606H13.1737L12.7789 11.5878H10.7023V17.586C14.9638 16.9419 18.2227 13.391 18.2227 9.10606Z" fill="#2E4049"/>
</svg>

<svg width="19" height="18" fill="none" xmlns="http://www.w3.org/2000/svg"><path fill-rule="evenodd" clip-rule="evenodd" d="M18.223 9.106c0-4.74-3.991-8.583-8.913-8.583C4.387.523.396 4.366.396 9.106c0 4.284 3.26 7.835 7.52 8.48v-5.998H5.654V9.106h2.264v-1.89c0-2.152 1.33-3.34 3.367-3.34.975 0 1.995.167 1.995.167v2.113h-1.124c-1.107 0-1.453.661-1.453 1.34v1.61h2.472l-.395 2.482h-2.077v5.998c4.262-.644 7.52-4.195 7.52-8.48Z" fill="#2E4049"/></svg>
